X: 1
T: Hills of Glenurchie -- Jig
B: Ryan's Mammoth Collection of Fiddle Tunes
R: jig
M: 6/8
L: 1/8
Z: Contributed 20000421034742 by John Chambers jcsd:world.std.com
K: Em
ud \
| BGE EFE | BAB d2B | AFD DED | AFA ded |
| BGE EFE | BAB d2e | dBd AFD | EFE E2 :|
|: uB \
| efe edB | efg gfe | ded dAB | def fed |
| efe edc | efg gfe | dBd AFD | EFE E2 :|
